!!!OTL: Zhude siling daihongjun
!!!ARE: Asia, China,ÿYunnan Yaochuan
!! II, 44
!!!SCT: C1868
!!!YEM: Copyright 1995, estate of Helmut Schaffrath.
**kern
*ICvox
*Ivox
!! Mixed meters:  3/4; 2/4
*M3/4
*k[]
*C:
{16dd
8.dd
8ee
16dd
16cc
4a
=1
*M2/4
16ee
16dd
8cc
4dd}
=2
{8.dd
16a
8cc
16a
16g
=3
*M3/4
8f
16g
16f
8.d
16c
4d}
=4
{16dd
8.dd
8ee
16dd
16cc
4a
=5
*M2/4
8dd
16ee
16cc
4dd}
=6
{8.dd
16dd
16a
16cc
16a
16g
=7
8f
16g
16f
8.d
16c
4d}
==
!!!AGN: Xiaodiao, Lianhualao
!!!AMT: irregular
!!!AIN: vox
!!!EED: Helmut Schaffrath
!!!EEV: 1.0
*-
